ui/client/assets/img/toolbarButtons/group-start.svg

<svg xmlns="http://www.w3.org/2000/svg" viewBox="0 0 36 36"><g data-name="Layer 2"><path d="M25 11h-3.8V5.2h-16v16H11V25h3.8v5.8h16v-16H25zm-14 8.2H7.2v-12h12V11H11zm2.5 0v-2.41h3.29V13.5h2.42v3.29h3.29v2.42h-3.29v3.29h-2.42v-3.29zm15.3-2.4v12h-12V25H25v-8.2z" fill="#b3b3b3" data-name="aplikacja główna"/></g></svg>

<svg xmlns="http://www.w3.org/2000/svg" viewBox="0 0 36 36"><defs><style>.cls-1{fill:none;}.cls-2{fill:#b3b3b3;}</style></defs><title>group-start</title><g id="Layer_2" data-name="Layer 2"><g id="aplikacja_główna" data-name="aplikacja główna"><rect class="cls-1" width="36" height="36"/><path class="cls-2" d="M25,11H21.2V5.2H5.2v16H11V25h3.8v5.8h16v-16H25ZM11,19.2H7.2V7.2h12V11H11Zm2.5,0V16.79h3.29V13.5h2.42v3.29H22.5v2.42H19.21V22.5H16.79V19.21ZM28.8,16.8v12h-12V25H25V16.8Z"/></g></g></svg>
